svg/OSM-icons/leisure #21610b °ffffff !label=enleisure,deFreizeit/21170;leisure=pitch;!name=;#sport=paddle_tennis;[addr];[contact];!label=enpaddle tennis,dePaddel Tennis.svg

<svg xmlns="http://www.w3.org/2000/svg" viewBox="0 0 580 580" enable-background="new 0 0 580 580"><path fill="#111" stroke="#eee" stroke-width="3.408" d="m66.28 1.768c-41.34 0-64.57 21.371-64.57 65.04v450.12c0 40.844 20.894 62.23 62.19 62.23h452.02c41.31 0 62.23-20.316 62.23-62.23v-450.12c0-42.601-20.923-65.04-63.52-65.04-.003 0-448.49-.143-448.35 0z"/><g fill="#fff"><path d="m363.83 82.46c-33.547-30.967-80.09-48.46-123.99-46.31-43.91-2.156-90.45 15.34-124 46.31-43.925 40.547-8.109 156.78 10.138 182.46 18.246 25.68 68.93 110.15 68.93 110.15s10.272 6.759 12.165 38.521c1.893 31.76-5.409 95.29-6.083 106.1-.673 10.811-12.164 19.601 10.814 22.302 22.979 2.699 33.09 2.699 56.07 0 22.973-2.701 11.482-11.491 10.81-22.302s-7.975-74.34-6.082-106.1c1.893-31.762 12.164-38.521 12.164-38.521s50.684-84.48 68.931-110.16c18.246-25.68 54.07-141.92 10.137-182.46m-100.99 2.639c3.951 0 7.163 3.208 7.163 7.166 0 3.954-3.212 7.161-7.163 7.161-3.956 0-7.167-3.208-7.167-7.161 0-3.958 3.211-7.166 7.167-7.166m0 25.701c3.951 0 7.163 3.206 7.163 7.164 0 3.955-3.212 7.163-7.163 7.163-3.956 0-7.167-3.208-7.167-7.163 0-3.959 3.211-7.164 7.167-7.164m0 25.699c3.951 0 7.163 3.207 7.163 7.165 0 3.955-3.212 7.161-7.163 7.161-3.956 0-7.167-3.207-7.167-7.161 0-3.958 3.211-7.165 7.167-7.165m0 25.7c3.951 0 7.163 3.205 7.163 7.163 0 3.956-3.212 7.161-7.163 7.161-3.956 0-7.167-3.205-7.167-7.161 0-3.958 3.211-7.163 7.167-7.163m0 25.698c3.951 0 7.163 3.208 7.163 7.166 0 3.953-3.212 7.161-7.163 7.161-3.956 0-7.167-3.208-7.167-7.161 0-3.958 3.211-7.166 7.167-7.166m0 25.7c3.951 0 7.163 3.207 7.163 7.165 0 3.954-3.212 7.161-7.163 7.161-3.956 0-7.167-3.207-7.167-7.161 0-3.959 3.211-7.165 7.167-7.165m0 25.7c3.951 0 7.163 3.207 7.163 7.163s-3.212 7.163-7.163 7.163c-3.956 0-7.167-3.207-7.167-7.163s3.211-7.163 7.167-7.163m-23.01-154.2c3.956 0 7.164 3.208 7.164 7.166 0 3.954-3.208 7.161-7.164 7.161-3.955 0-7.164-3.208-7.164-7.161 0-3.958 3.209-7.166 7.164-7.166m0 25.701c3.956 0 7.164 3.206 7.164 7.164 0 3.955-3.208 7.163-7.164 7.163-3.955 0-7.164-3.208-7.164-7.163 0-3.959 3.209-7.164 7.164-7.164m0 25.699c3.956 0 7.164 3.207 7.164 7.165 0 3.955-3.208 7.161-7.164 7.161-3.955 0-7.164-3.207-7.164-7.161 0-3.958 3.209-7.165 7.164-7.165m0 25.7c3.956 0 7.164 3.205 7.164 7.163 0 3.956-3.208 7.161-7.164 7.161-3.955 0-7.164-3.205-7.164-7.161 0-3.958 3.209-7.163 7.164-7.163m0 25.698c3.956 0 7.164 3.208 7.164 7.166 0 3.953-3.208 7.161-7.164 7.161-3.955 0-7.164-3.208-7.164-7.161 0-3.958 3.209-7.166 7.164-7.166m0 25.7c3.956 0 7.164 3.207 7.164 7.165 0 3.954-3.208 7.161-7.164 7.161-3.955 0-7.164-3.207-7.164-7.161 0-3.959 3.209-7.165 7.164-7.165m0 25.7c3.956 0 7.164 3.207 7.164 7.163s-3.208 7.163-7.164 7.163c-3.955 0-7.164-3.207-7.164-7.163s3.209-7.163 7.164-7.163m-23.01-154.2c3.954 0 7.163 3.208 7.163 7.166 0 3.954-3.209 7.161-7.163 7.161-3.956 0-7.166-3.208-7.166-7.161.0001-3.958 3.21-7.166 7.166-7.166m0 25.701c3.954 0 7.163 3.206 7.163 7.164 0 3.955-3.209 7.163-7.163 7.163-3.956 0-7.166-3.208-7.166-7.163.0001-3.959 3.21-7.164 7.166-7.164m0 25.699c3.954 0 7.163 3.207 7.163 7.165 0 3.955-3.209 7.161-7.163 7.161-3.956 0-7.166-3.207-7.166-7.161.0001-3.958 3.21-7.165 7.166-7.165m0 25.7c3.954 0 7.163 3.205 7.163 7.163 0 3.956-3.209 7.161-7.163 7.161-3.956 0-7.166-3.205-7.166-7.161.0001-3.958 3.21-7.163 7.166-7.163m0 25.698c3.954 0 7.163 3.208 7.163 7.166 0 3.953-3.209 7.161-7.163 7.161-3.956 0-7.166-3.208-7.166-7.161.0001-3.958 3.21-7.166 7.166-7.166m0 25.7c3.954 0 7.163 3.207 7.163 7.165 0 3.954-3.209 7.161-7.163 7.161-3.956 0-7.166-3.207-7.166-7.161.0001-3.959 3.21-7.165 7.166-7.165m0 25.7c3.954 0 7.163 3.207 7.163 7.163s-3.209 7.163-7.163 7.163c-3.956 0-7.166-3.207-7.166-7.163s3.21-7.163 7.166-7.163m-23.01-154.2c3.956 0 7.166 3.208 7.166 7.166 0 3.954-3.209 7.161-7.166 7.161-3.953 0-7.163-3.208-7.163-7.161 0-3.958 3.21-7.166 7.163-7.166m0 25.701c3.956 0 7.166 3.206 7.166 7.164 0 3.955-3.209 7.163-7.166 7.163-3.953 0-7.163-3.208-7.163-7.163 0-3.959 3.21-7.164 7.163-7.164m0 25.699c3.956 0 7.166 3.207 7.166 7.165 0 3.955-3.209 7.161-7.166 7.161-3.953 0-7.163-3.207-7.163-7.161 0-3.958 3.21-7.165 7.163-7.165m0 25.7c3.956 0 7.166 3.205 7.166 7.163 0 3.956-3.209 7.161-7.166 7.161-3.953 0-7.163-3.205-7.163-7.161 0-3.958 3.21-7.163 7.163-7.163m0 25.698c3.956 0 7.166 3.208 7.166 7.166 0 3.953-3.209 7.161-7.166 7.161-3.953 0-7.163-3.208-7.163-7.161 0-3.958 3.21-7.166 7.163-7.166m0 25.7c3.956 0 7.166 3.207 7.166 7.165 0 3.954-3.209 7.161-7.166 7.161-3.953 0-7.163-3.207-7.163-7.161 0-3.959 3.21-7.165 7.163-7.165m-46.02-11.373c-3.955 0-7.165-3.208-7.165-7.161 0-3.958 3.209-7.166 7.165-7.166 3.955 0 7.164 3.208 7.164 7.166 0 3.953-3.21 7.161-7.164 7.161m0-25.701c-3.955 0-7.165-3.205-7.165-7.161 0-3.958 3.209-7.163 7.165-7.163 3.955 0 7.164 3.205 7.164 7.163 0 3.956-3.21 7.161-7.164 7.161m0-25.699c-3.955 0-7.165-3.207-7.165-7.161 0-3.958 3.209-7.165 7.165-7.165 3.955 0 7.164 3.207 7.164 7.165 0 3.955-3.21 7.161-7.164 7.161m23.01 77.1c-3.955 0-7.164-3.207-7.164-7.161 0-3.958 3.209-7.165 7.164-7.165 3.955 0 7.165 3.207 7.165 7.165-.0001 3.954-3.21 7.161-7.165 7.161m0-25.698c-3.955 0-7.164-3.208-7.164-7.161 0-3.958 3.209-7.166 7.164-7.166 3.955 0 7.165 3.208 7.165 7.166-.0001 3.953-3.21 7.161-7.165 7.161m0-25.701c-3.955 0-7.164-3.205-7.164-7.161 0-3.958 3.209-7.163 7.164-7.163 3.955 0 7.165 3.205 7.165 7.163-.0001 3.956-3.21 7.161-7.165 7.161m0-25.699c-3.955 0-7.164-3.207-7.164-7.161 0-3.958 3.209-7.165 7.164-7.165 3.955 0 7.165 3.207 7.165 7.165-.0001 3.955-3.21 7.161-7.165 7.161m0-25.698c-3.955 0-7.164-3.208-7.164-7.163 0-3.958 3.209-7.164 7.164-7.164 3.955 0 7.165 3.206 7.165 7.164-.0001 3.955-3.21 7.163-7.165 7.163m15.844 121.33c0-3.956 3.209-7.163 7.163-7.163 3.956 0 7.166 3.207 7.166 7.163s-3.209 7.163-7.166 7.163c-3.953 0-7.163-3.207-7.163-7.163m96.95 78.09l-15.954 19.475-26.304 35.789h-3.02l-26.304-35.789-15.954-19.475c0 0-1.837-5.773-1.552-6.977-.554-5.251.681-10.699 10.334-5.338.075.041.147.075.222.116.285-.036 1.378.443 2.463 1.303 12.426 6.464 23.23 9.06 32.3 9.47 9.07-.407 19.875-3.01 32.3-9.47 1.086-.859 2.179-1.339 2.463-1.303.075-.041.147-.075.223-.116 9.653-5.361 10.889.087 10.335 5.338.284 1.203-1.553 6.977-1.553 6.977m2.249-70.923c-3.955 0-7.163-3.207-7.163-7.163s3.208-7.163 7.163-7.163c3.956 0 7.167 3.207 7.167 7.163s-3.211 7.163-7.167 7.163m0-25.701c-3.955 0-7.163-3.207-7.163-7.161 0-3.958 3.208-7.165 7.163-7.165 3.956 0 7.167 3.207 7.167 7.165 0 3.954-3.211 7.161-7.167 7.161m0-25.698c-3.955 0-7.163-3.208-7.163-7.161 0-3.958 3.208-7.166 7.163-7.166 3.956 0 7.167 3.208 7.167 7.166 0 3.953-3.211 7.161-7.167 7.161m0-25.701c-3.955 0-7.163-3.205-7.163-7.161 0-3.958 3.208-7.163 7.163-7.163 3.956 0 7.167 3.205 7.167 7.163 0 3.956-3.211 7.161-7.167 7.161m0-25.699c-3.955 0-7.163-3.207-7.163-7.161 0-3.958 3.208-7.165 7.163-7.165 3.956 0 7.167 3.207 7.167 7.165 0 3.955-3.211 7.161-7.167 7.161m0-25.698c-3.955 0-7.163-3.208-7.163-7.163 0-3.958 3.208-7.164 7.163-7.164 3.956 0 7.167 3.206 7.167 7.164 0 3.955-3.211 7.163-7.167 7.163m0-25.701c-3.955 0-7.163-3.208-7.163-7.161 0-3.958 3.208-7.166 7.163-7.166 3.956 0 7.167 3.208 7.167 7.166 0 3.954-3.211 7.161-7.167 7.161m23.01 128.5c-3.956 0-7.163-3.207-7.163-7.161 0-3.958 3.207-7.165 7.163-7.165s7.163 3.207 7.163 7.165c0 3.954-3.207 7.161-7.163 7.161m0-25.698c-3.956 0-7.163-3.208-7.163-7.161 0-3.958 3.207-7.166 7.163-7.166s7.163 3.208 7.163 7.166c0 3.953-3.207 7.161-7.163 7.161m0-25.701c-3.956 0-7.163-3.205-7.163-7.161 0-3.958 3.207-7.163 7.163-7.163s7.163 3.205 7.163 7.163c0 3.956-3.207 7.161-7.163 7.161m0-25.699c-3.956 0-7.163-3.207-7.163-7.161 0-3.958 3.207-7.165 7.163-7.165s7.163 3.207 7.163 7.165c0 3.955-3.207 7.161-7.163 7.161m0-25.698c-3.956 0-7.163-3.208-7.163-7.163 0-3.958 3.207-7.164 7.163-7.164s7.163 3.206 7.163 7.164c0 3.955-3.207 7.163-7.163 7.163m23.01 77.1c-3.954 0-7.167-3.208-7.167-7.161 0-3.958 3.213-7.166 7.167-7.166 3.952 0 7.164 3.208 7.164 7.166 0 3.953-3.212 7.161-7.164 7.161m0-25.701c-3.954 0-7.167-3.205-7.167-7.161 0-3.958 3.213-7.163 7.167-7.163 3.952 0 7.164 3.205 7.164 7.163 0 3.956-3.212 7.161-7.164 7.161m0-25.699c-3.954 0-7.167-3.207-7.167-7.161 0-3.958 3.213-7.165 7.167-7.165 3.952 0 7.164 3.207 7.164 7.165 0 3.955-3.212 7.161-7.164 7.161"/><circle cx="442.4" cy="359.34" r="42.748"/></g></svg>

<?xml version="1.0" encoding="utf-8"?>
<!-- Generator: Adobe Illustrator 15.0.0, SVG Export Plug-In . SVG Version: 6.00 Build 0)  -->
<!DOCTYPE svg PUBLIC "-//W3C//DTD SVG 1.1//EN" "http://www.w3.org/Graphics/SVG/1.1/DTD/svg11.dtd">
<svg version="1.1" xmlns="http://www.w3.org/2000/svg" xmlns:xlink="http://www.w3.org/1999/xlink" x="0px" y="0px" width="580px"
	 height="580px" viewBox="0 0 580 580" enable-background="new 0 0 580 580" xml:space="preserve">
<g id="Layer_2">
	<g id="g1327">
		<path id="path1329" fill="#111111" stroke="#EEEEEE" stroke-width="3.408" d="M66.275,1.768
			c-41.335,0-64.571,21.371-64.571,65.036v450.123c0,40.844,20.894,62.229,62.192,62.229H515.92
			c41.307,0,62.229-20.316,62.229-62.229V66.804c0-42.601-20.923-65.036-63.522-65.036C514.624,1.768,66.133,1.625,66.275,1.768z"/>
	</g>
</g>
<g id="svg2" inkscape:output_extension="org.inkscape.output.svg.inkscape" xmlns:cc="http://creativecommons.org/ns#" xmlns:svg="http://www.w3.org/2000/svg" xmlns:sodipodi="http://sodipodi.sourceforge.net/DTD/sodipodi-0.dtd" xmlns:rdf="http://www.w3.org/1999/02/22-rdf-syntax-ns#" xmlns:dc="http://purl.org/dc/elements/1.1/" xmlns:inkscape="http://www.inkscape.org/namespaces/inkscape" sodipodi:docname="waste_bin.svg" inkscape:version="0.46" sodipodi:version="0.32">
	<g>
		<path fill="#FFFFFF" d="M363.831,82.459c-33.547-30.967-80.089-48.464-123.993-46.308c-43.91-2.156-90.452,15.34-124,46.308
			c-43.925,40.547-8.109,156.783,10.138,182.464c18.246,25.68,68.93,110.155,68.93,110.155s10.272,6.759,12.165,38.521
			c1.893,31.76-5.409,95.29-6.083,106.101c-0.673,10.811-12.164,19.601,10.814,22.302c22.979,2.699,33.086,2.699,56.069,0
			c22.973-2.701,11.482-11.491,10.81-22.302s-7.975-74.341-6.082-106.101c1.893-31.762,12.164-38.521,12.164-38.521
			s50.684-84.476,68.931-110.155C371.94,239.243,407.76,123.006,363.831,82.459z M262.846,85.098c3.951,0,7.163,3.208,7.163,7.166
			c0,3.954-3.212,7.161-7.163,7.161c-3.956,0-7.167-3.208-7.167-7.161C255.679,88.306,258.89,85.098,262.846,85.098z
			 M262.846,110.799c3.951,0,7.163,3.206,7.163,7.164c0,3.955-3.212,7.163-7.163,7.163c-3.956,0-7.167-3.208-7.167-7.163
			C255.679,114.004,258.89,110.799,262.846,110.799z M262.846,136.498c3.951,0,7.163,3.207,7.163,7.165
			c0,3.955-3.212,7.161-7.163,7.161c-3.956,0-7.167-3.207-7.167-7.161C255.679,139.705,258.89,136.498,262.846,136.498z
			 M262.846,162.198c3.951,0,7.163,3.205,7.163,7.163c0,3.956-3.212,7.161-7.163,7.161c-3.956,0-7.167-3.205-7.167-7.161
			C255.679,165.403,258.89,162.198,262.846,162.198z M262.846,187.896c3.951,0,7.163,3.208,7.163,7.166
			c0,3.953-3.212,7.161-7.163,7.161c-3.956,0-7.167-3.208-7.167-7.161C255.679,191.104,258.89,187.896,262.846,187.896z
			 M262.846,213.596c3.951,0,7.163,3.207,7.163,7.165c0,3.954-3.212,7.161-7.163,7.161c-3.956,0-7.167-3.207-7.167-7.161
			C255.679,216.802,258.89,213.596,262.846,213.596z M262.846,239.296c3.951,0,7.163,3.207,7.163,7.163s-3.212,7.163-7.163,7.163
			c-3.956,0-7.167-3.207-7.167-7.163S258.89,239.296,262.846,239.296z M239.835,85.098c3.956,0,7.164,3.208,7.164,7.166
			c0,3.954-3.208,7.161-7.164,7.161c-3.955,0-7.164-3.208-7.164-7.161C232.671,88.306,235.88,85.098,239.835,85.098z
			 M239.835,110.799c3.956,0,7.164,3.206,7.164,7.164c0,3.955-3.208,7.163-7.164,7.163c-3.955,0-7.164-3.208-7.164-7.163
			C232.671,114.004,235.88,110.799,239.835,110.799z M239.835,136.498c3.956,0,7.164,3.207,7.164,7.165
			c0,3.955-3.208,7.161-7.164,7.161c-3.955,0-7.164-3.207-7.164-7.161C232.671,139.705,235.88,136.498,239.835,136.498z
			 M239.835,162.198c3.956,0,7.164,3.205,7.164,7.163c0,3.956-3.208,7.161-7.164,7.161c-3.955,0-7.164-3.205-7.164-7.161
			C232.671,165.403,235.88,162.198,239.835,162.198z M239.835,187.896c3.956,0,7.164,3.208,7.164,7.166
			c0,3.953-3.208,7.161-7.164,7.161c-3.955,0-7.164-3.208-7.164-7.161C232.671,191.104,235.88,187.896,239.835,187.896z
			 M239.835,213.596c3.956,0,7.164,3.207,7.164,7.165c0,3.954-3.208,7.161-7.164,7.161c-3.955,0-7.164-3.207-7.164-7.161
			C232.671,216.802,235.88,213.596,239.835,213.596z M239.835,239.296c3.956,0,7.164,3.207,7.164,7.163s-3.208,7.163-7.164,7.163
			c-3.955,0-7.164-3.207-7.164-7.163S235.88,239.296,239.835,239.296z M216.828,85.098c3.954,0,7.163,3.208,7.163,7.166
			c0,3.954-3.209,7.161-7.163,7.161c-3.956,0-7.166-3.208-7.166-7.161C209.663,88.306,212.872,85.098,216.828,85.098z
			 M216.828,110.799c3.954,0,7.163,3.206,7.163,7.164c0,3.955-3.209,7.163-7.163,7.163c-3.956,0-7.166-3.208-7.166-7.163
			C209.663,114.004,212.872,110.799,216.828,110.799z M216.828,136.498c3.954,0,7.163,3.207,7.163,7.165
			c0,3.955-3.209,7.161-7.163,7.161c-3.956,0-7.166-3.207-7.166-7.161C209.663,139.705,212.872,136.498,216.828,136.498z
			 M216.828,162.198c3.954,0,7.163,3.205,7.163,7.163c0,3.956-3.209,7.161-7.163,7.161c-3.956,0-7.166-3.205-7.166-7.161
			C209.663,165.403,212.872,162.198,216.828,162.198z M216.828,187.896c3.954,0,7.163,3.208,7.163,7.166
			c0,3.953-3.209,7.161-7.163,7.161c-3.956,0-7.166-3.208-7.166-7.161C209.663,191.104,212.872,187.896,216.828,187.896z
			 M216.828,213.596c3.954,0,7.163,3.207,7.163,7.165c0,3.954-3.209,7.161-7.163,7.161c-3.956,0-7.166-3.207-7.166-7.161
			C209.663,216.802,212.872,213.596,216.828,213.596z M216.828,239.296c3.954,0,7.163,3.207,7.163,7.163s-3.209,7.163-7.163,7.163
			c-3.956,0-7.166-3.207-7.166-7.163S212.872,239.296,216.828,239.296z M193.818,85.098c3.956,0,7.166,3.208,7.166,7.166
			c0,3.954-3.209,7.161-7.166,7.161c-3.953,0-7.163-3.208-7.163-7.161C186.655,88.306,189.865,85.098,193.818,85.098z
			 M193.818,110.799c3.956,0,7.166,3.206,7.166,7.164c0,3.955-3.209,7.163-7.166,7.163c-3.953,0-7.163-3.208-7.163-7.163
			C186.655,114.004,189.865,110.799,193.818,110.799z M193.818,136.498c3.956,0,7.166,3.207,7.166,7.165
			c0,3.955-3.209,7.161-7.166,7.161c-3.953,0-7.163-3.207-7.163-7.161C186.655,139.705,189.865,136.498,193.818,136.498z
			 M193.818,162.198c3.956,0,7.166,3.205,7.166,7.163c0,3.956-3.209,7.161-7.166,7.161c-3.953,0-7.163-3.205-7.163-7.161
			C186.655,165.403,189.865,162.198,193.818,162.198z M193.818,187.896c3.956,0,7.166,3.208,7.166,7.166
			c0,3.953-3.209,7.161-7.166,7.161c-3.953,0-7.163-3.208-7.163-7.161C186.655,191.104,189.865,187.896,193.818,187.896z
			 M193.818,213.596c3.956,0,7.166,3.207,7.166,7.165c0,3.954-3.209,7.161-7.166,7.161c-3.953,0-7.163-3.207-7.163-7.161
			C186.655,216.802,189.865,213.596,193.818,213.596z M147.802,202.223c-3.955,0-7.165-3.208-7.165-7.161
			c0-3.958,3.209-7.166,7.165-7.166c3.955,0,7.164,3.208,7.164,7.166C154.966,199.015,151.756,202.223,147.802,202.223z
			 M147.802,176.522c-3.955,0-7.165-3.205-7.165-7.161c0-3.958,3.209-7.163,7.165-7.163c3.955,0,7.164,3.205,7.164,7.163
			C154.966,173.317,151.756,176.522,147.802,176.522z M147.802,150.823c-3.955,0-7.165-3.207-7.165-7.161
			c0-3.958,3.209-7.165,7.165-7.165c3.955,0,7.164,3.207,7.164,7.165C154.966,147.617,151.756,150.823,147.802,150.823z
			 M170.811,227.921c-3.955,0-7.164-3.207-7.164-7.161c0-3.958,3.209-7.165,7.164-7.165c3.955,0,7.165,3.207,7.165,7.165
			C177.975,224.714,174.766,227.921,170.811,227.921z M170.811,202.223c-3.955,0-7.164-3.208-7.164-7.161
			c0-3.958,3.209-7.166,7.164-7.166c3.955,0,7.165,3.208,7.165,7.166C177.975,199.015,174.766,202.223,170.811,202.223z
			 M170.811,176.522c-3.955,0-7.164-3.205-7.164-7.161c0-3.958,3.209-7.163,7.164-7.163c3.955,0,7.165,3.205,7.165,7.163
			C177.975,173.317,174.766,176.522,170.811,176.522z M170.811,150.823c-3.955,0-7.164-3.207-7.164-7.161
			c0-3.958,3.209-7.165,7.164-7.165c3.955,0,7.165,3.207,7.165,7.165C177.975,147.617,174.766,150.823,170.811,150.823z
			 M170.811,125.125c-3.955,0-7.164-3.208-7.164-7.163c0-3.958,3.209-7.164,7.164-7.164c3.955,0,7.165,3.206,7.165,7.164
			C177.975,121.917,174.766,125.125,170.811,125.125z M186.655,246.459c0-3.956,3.209-7.163,7.163-7.163
			c3.956,0,7.166,3.207,7.166,7.163s-3.209,7.163-7.166,7.163C189.865,253.622,186.655,250.415,186.655,246.459z M283.603,324.545
			l-15.954,19.475l-26.304,35.789h-3.018l-26.304-35.789l-15.954-19.475c0,0-1.837-5.773-1.552-6.977
			c-0.554-5.251,0.681-10.699,10.334-5.338c0.075,0.041,0.147,0.075,0.222,0.116c0.285-0.036,1.378,0.443,2.463,1.303
			c12.426,6.464,23.229,9.063,32.299,9.47c9.072-0.407,19.875-3.006,32.3-9.47c1.086-0.859,2.179-1.339,2.463-1.303
			c0.075-0.041,0.147-0.075,0.223-0.116c9.653-5.361,10.889,0.087,10.335,5.338C285.44,318.771,283.603,324.545,283.603,324.545z
			 M285.852,253.622c-3.955,0-7.163-3.207-7.163-7.163s3.208-7.163,7.163-7.163c3.956,0,7.167,3.207,7.167,7.163
			S289.808,253.622,285.852,253.622z M285.852,227.921c-3.955,0-7.163-3.207-7.163-7.161c0-3.958,3.208-7.165,7.163-7.165
			c3.956,0,7.167,3.207,7.167,7.165C293.019,224.714,289.808,227.921,285.852,227.921z M285.852,202.223
			c-3.955,0-7.163-3.208-7.163-7.161c0-3.958,3.208-7.166,7.163-7.166c3.956,0,7.167,3.208,7.167,7.166
			C293.019,199.015,289.808,202.223,285.852,202.223z M285.852,176.522c-3.955,0-7.163-3.205-7.163-7.161
			c0-3.958,3.208-7.163,7.163-7.163c3.956,0,7.167,3.205,7.167,7.163C293.019,173.317,289.808,176.522,285.852,176.522z
			 M285.852,150.823c-3.955,0-7.163-3.207-7.163-7.161c0-3.958,3.208-7.165,7.163-7.165c3.956,0,7.167,3.207,7.167,7.165
			C293.019,147.617,289.808,150.823,285.852,150.823z M285.852,125.125c-3.955,0-7.163-3.208-7.163-7.163
			c0-3.958,3.208-7.164,7.163-7.164c3.956,0,7.167,3.206,7.167,7.164C293.019,121.917,289.808,125.125,285.852,125.125z
			 M285.852,99.424c-3.955,0-7.163-3.208-7.163-7.161c0-3.958,3.208-7.166,7.163-7.166c3.956,0,7.167,3.208,7.167,7.166
			C293.019,96.217,289.808,99.424,285.852,99.424z M308.861,227.921c-3.956,0-7.163-3.207-7.163-7.161
			c0-3.958,3.207-7.165,7.163-7.165s7.163,3.207,7.163,7.165C316.024,224.714,312.817,227.921,308.861,227.921z M308.861,202.223
			c-3.956,0-7.163-3.208-7.163-7.161c0-3.958,3.207-7.166,7.163-7.166s7.163,3.208,7.163,7.166
			C316.024,199.015,312.817,202.223,308.861,202.223z M308.861,176.522c-3.956,0-7.163-3.205-7.163-7.161
			c0-3.958,3.207-7.163,7.163-7.163s7.163,3.205,7.163,7.163C316.024,173.317,312.817,176.522,308.861,176.522z M308.861,150.823
			c-3.956,0-7.163-3.207-7.163-7.161c0-3.958,3.207-7.165,7.163-7.165s7.163,3.207,7.163,7.165
			C316.024,147.617,312.817,150.823,308.861,150.823z M308.861,125.125c-3.956,0-7.163-3.208-7.163-7.163
			c0-3.958,3.207-7.164,7.163-7.164s7.163,3.206,7.163,7.164C316.024,121.917,312.817,125.125,308.861,125.125z M331.871,202.223
			c-3.954,0-7.167-3.208-7.167-7.161c0-3.958,3.213-7.166,7.167-7.166c3.952,0,7.164,3.208,7.164,7.166
			C339.035,199.015,335.823,202.223,331.871,202.223z M331.871,176.522c-3.954,0-7.167-3.205-7.167-7.161
			c0-3.958,3.213-7.163,7.167-7.163c3.952,0,7.164,3.205,7.164,7.163C339.035,173.317,335.823,176.522,331.871,176.522z
			 M331.871,150.823c-3.954,0-7.167-3.207-7.167-7.161c0-3.958,3.213-7.165,7.167-7.165c3.952,0,7.164,3.207,7.164,7.165
			C339.035,147.617,335.823,150.823,331.871,150.823z"/>
		<circle fill="#FFFFFF" cx="442.401" cy="359.338" r="42.748"/>
	</g>
</g>
</svg>
